resource/light-bulb-idea-svgrepo-com.svg

<?xml version="1.0" encoding="iso-8859-1"?>
<!-- Generator: Adobe Illustrator 19.0.0, SVG Export Plug-In . SVG Version: 6.00 Build 0)  -->
<svg version="1.1" id="Layer_1" xmlns="http://www.w3.org/2000/svg" xmlns:xlink="http://www.w3.org/1999/xlink" x="0px" y="0px"
	 viewBox="0 0 512 512" style="enable-background:new 0 0 512 512;" xml:space="preserve">
<g>
	<g>
		<path d="M256,0C157.885,0,78.063,79.822,78.063,177.936c0,46.98,18.144,91.296,51.088,124.784l2.627,2.664
			c12.84,13.511,22.519,29.458,28.548,46.871l-0.592,0.372c-11.394,7.163-18.198,19.455-18.198,32.875
			c0,13.279,6.624,25.167,17.105,32.202c-0.923,3.334-1.422,6.809-1.422,10.357c0,21.417,17.424,38.841,38.841,38.841h3.793
			C205.545,492.665,228.551,512,256,512s50.455-19.336,56.147-45.099h3.793c21.417,0,38.841-17.424,38.841-38.841
			c0-3.548-0.499-7.023-1.422-10.357c10.482-7.034,17.105-18.923,17.105-32.202c0-13.42-6.802-25.711-18.198-32.875l-0.592-0.372
			c6.005-17.348,15.634-33.24,28.405-46.719l2.77-2.816c32.945-33.487,51.088-77.803,51.088-124.784C433.937,79.822,354.115,0,256,0
			z M256,481.583c-10.465,0-19.562-5.964-24.074-14.671h48.147C275.563,475.619,266.466,481.583,256,481.583z M315.94,436.483
			h-2.429v-0.105l-15.313,0.105h-84.371l-15.337-0.205v0.205h-2.429c-4.645,0-8.424-3.779-8.424-8.424
			c0-1.561,0.433-3.064,1.22-4.363h134.287c0.787,1.298,1.22,2.801,1.22,4.363C324.364,432.705,320.585,436.483,315.94,436.483z
			 M334.822,393.281h-0.966H178.145h-0.966c-3.133-1.27-5.226-4.306-5.226-7.779c0-1.745,0.538-3.405,1.51-4.792h165.075
			c0.971,1.386,1.51,3.047,1.51,4.792C340.048,388.974,337.955,392.01,334.822,393.281z M239.773,350.293v-90.148h32.453v90.148
			H239.773z M362.011,280.522l-0.749,0.747c-19.394,19.326-33.376,42.992-40.879,69.024h-17.738v-90.148h9.559
			c22.043,0,39.976-17.934,39.976-39.977c0-22.042-17.934-39.976-39.976-39.976c-22.042,0-39.976,17.934-39.976,39.976v9.56h-32.453
			v-9.56c0-22.042-17.934-39.976-39.976-39.976s-39.976,17.934-39.976,39.976c0,22.043,17.934,39.977,39.976,39.977h9.559v90.148
			h-17.738c-7.503-26.033-21.486-49.699-40.88-69.024l-0.71-0.706c-26.802-27.663-41.549-64.064-41.549-102.628
			c0-81.342,66.177-147.518,147.519-147.518S403.52,96.594,403.52,177.936C403.52,216.481,388.787,252.864,362.011,280.522z
			 M302.644,229.728v-9.56c0-5.27,4.288-9.559,9.559-9.559s9.559,4.288,9.559,9.559s-4.288,9.56-9.559,9.56H302.644z
			 M209.356,220.168v9.56h-9.559c-5.271,0-9.559-4.288-9.559-9.56c0-5.27,4.288-9.559,9.559-9.559S209.356,214.897,209.356,220.168z
			"/>
	</g>
</g>
<g>
</g>
<g>
</g>
<g>
</g>
<g>
</g>
<g>
</g>
<g>
</g>
<g>
</g>
<g>
</g>
<g>
</g>
<g>
</g>
<g>
</g>
<g>
</g>
<g>
</g>
<g>
</g>
<g>
</g>
</svg>

<?xml version="1.0" encoding="iso-8859-1"?>
<!-- Generator: Adobe Illustrator 19.0.0, SVG Export Plug-In . SVG Version: 6.00 Build 0)  -->
<svg version="1.1" id="Layer_1" xmlns="http://www.w3.org/2000/svg" xmlns:xlink="http://www.w3.org/1999/xlink" x="0px"
     y="0px"
     viewBox="0 0 512 512" style="enable-background:new 0 0 512 512;" xml:space="preserve">
    <path style="stroke: rgb(0, 0, 0); fill: rgb(124, 124, 124);"
          d="M 160.638 366.687 C 156.365 420.911 213.326 478.502 257.136 496.106 C 308.878 484.357 349.153 411.947 345.118 366.687 C 290.642 365.311 225.737 366.524 160.638 366.687 Z"/>
    <path style="paint-order: fill; stroke: rgb(0, 0, 0); fill: rgb(255, 251, 121);"
          d="M 256 15.326 C 337.171 15.326 417.206 76.95 417.206 176.532 C 417.206 290.584 337.171 300 337.171 364.417 C 290.939 364.417 221.732 364.417 174.262 364.417 C 174.262 287.512 94.794 280.423 94.794 174.262 C 94.794 57.709 200 15.326 256 15.326 Z"/>
    <path d="M 256 0 C 157.885 0 78.063 79.822 78.063 177.936 C 78.063 224.916 96.207 269.232 129.151 302.72 L 131.778 305.384 C 144.618 318.895 154.297 334.842 160.326 352.255 L 159.734 352.627 C 148.34 359.79 141.536 372.082 141.536 385.502 C 141.536 398.781 148.16 410.669 158.641 417.704 C 157.718 421.038 157.219 424.513 157.219 428.061 C 157.219 449.478 174.643 466.902 196.06 466.902 L 199.853 466.902 C 205.545 492.665 228.551 512 256 512 C 283.449 512 306.455 492.664 312.147 466.901 L 315.94 466.901 C 337.357 466.901 354.781 449.477 354.781 428.06 C 354.781 424.512 354.282 421.037 353.359 417.703 C 363.841 410.669 370.464 398.78 370.464 385.501 C 370.464 372.081 363.662 359.79 352.266 352.626 L 351.674 352.254 C 357.679 334.906 367.308 319.014 380.079 305.535 L 382.849 302.719 C 415.794 269.232 433.937 224.916 433.937 177.935 C 433.937 79.822 354.115 0 256 0 Z M 256 481.583 C 245.535 481.583 236.438 475.619 231.926 466.912 L 280.073 466.912 C 275.563 475.619 266.466 481.583 256 481.583 Z M 315.94 436.483 L 313.511 436.483 L 313.511 436.378 L 298.198 436.483 L 213.827 436.483 L 198.49 436.278 L 198.49 436.483 L 196.061 436.483 C 191.416 436.483 187.637 432.704 187.637 428.059 C 187.637 426.498 188.07 424.995 188.857 423.696 L 323.144 423.696 C 323.931 424.994 324.364 426.497 324.364 428.059 C 324.364 432.705 320.585 436.483 315.94 436.483 Z M 334.822 393.281 L 333.856 393.281 L 178.145 393.281 L 177.179 393.281 C 174.046 392.011 171.953 388.975 171.953 385.502 C 171.953 383.757 172.491 382.097 173.463 380.71 L 338.538 380.71 C 339.509 382.096 340.048 383.757 340.048 385.502 C 340.048 388.974 337.955 392.01 334.822 393.281 Z M 239.773 350.293 L 239.773 260.145 L 272.226 260.145 L 272.226 350.293 L 239.773 350.293 Z M 362.011 280.522 L 361.262 281.269 C 341.868 300.595 327.886 324.261 320.383 350.293 L 302.645 350.293 L 302.645 260.145 L 312.204 260.145 C 334.247 260.145 352.18 242.211 352.18 220.168 C 352.18 198.126 334.246 180.192 312.204 180.192 C 290.162 180.192 272.228 198.126 272.228 220.168 L 272.228 229.728 L 239.775 229.728 L 239.775 220.168 C 239.775 198.126 221.841 180.192 199.799 180.192 C 177.757 180.192 159.823 198.126 159.823 220.168 C 159.823 242.211 177.757 260.145 199.799 260.145 L 209.358 260.145 L 209.358 350.293 L 191.62 350.293 C 184.117 324.26 170.134 300.594 150.74 281.269 L 150.03 280.563 C 123.228 252.9 108.481 216.499 108.481 177.935 C 108.481 96.593 174.658 30.417 256 30.417 C 337.342 30.417 403.52 96.594 403.52 177.936 C 403.52 216.481 388.787 252.864 362.011 280.522 Z M 302.644 229.728 L 302.644 220.168 C 302.644 214.898 306.932 210.609 312.203 210.609 C 317.474 210.609 321.762 214.897 321.762 220.168 C 321.762 225.439 317.474 229.728 312.203 229.728 L 302.644 229.728 Z M 209.356 220.168 L 209.356 229.728 L 199.797 229.728 C 194.526 229.728 190.238 225.44 190.238 220.168 C 190.238 214.898 194.526 210.609 199.797 210.609 C 205.068 210.609 209.356 214.897 209.356 220.168 Z"
          style=""/>
</svg>
